assets/img/layout/icon-add.svg

<svg xmlns="http://www.w3.org/2000/svg" width="30" height="30" viewBox="0 0 30 30"><defs><style>.a{fill:#fff;}.b,.d{fill:#111;}.c,.d{stroke:none;}</style></defs><g transform="translate(-170 -444)"><g class="a" transform="translate(170 444)"><path class="c" d="M 15 29.25 C 11.19369029998779 29.25 7.615200042724609 27.76774024963379 4.92372989654541 25.07626914978027 C 2.23225998878479 22.38479995727539 0.75 18.80631065368652 0.75 15 C 0.75 11.19369029998779 2.23225998878479 7.615200042724609 4.92372989654541 4.92372989654541 C 7.615200042724609 2.23225998878479 11.19369029998779 0.75 15 0.75 C 18.80631065368652 0.75 22.38479995727539 2.23225998878479 25.07626914978027 4.92372989654541 C 27.76774024963379 7.615200042724609 29.25 11.19369029998779 29.25 15 C 29.25 18.80631065368652 27.76774024963379 22.38479995727539 25.07626914978027 25.07626914978027 C 22.38479995727539 27.76774024963379 18.80631065368652 29.25 15 29.25 Z"/><path class="d" d="M 15 1.5 C 11.39402008056641 1.5 8.003870010375977 2.90424919128418 5.454059600830078 5.454059600830078 C 2.90424919128418 8.003870010375977 1.5 11.39402008056641 1.5 15 C 1.5 18.60597991943359 2.90424919128418 21.99612998962402 5.454059600830078 24.54594039916992 C 8.003870010375977 27.09575080871582 11.39402008056641 28.5 15 28.5 C 18.60597991943359 28.5 21.99612998962402 27.09575080871582 24.54594039916992 24.54594039916992 C 27.09575080871582 21.99612998962402 28.5 18.60597991943359 28.5 15 C 28.5 11.39402008056641 27.09575080871582 8.003870010375977 24.54594039916992 5.454059600830078 C 21.99612998962402 2.90424919128418 18.60597991943359 1.5 15 1.5 M 15 0 C 23.28426933288574 0 30 6.715730667114258 30 15 C 30 23.28426933288574 23.28426933288574 30 15 30 C 6.715730667114258 30 0 23.28426933288574 0 15 C 0 6.715730667114258 6.715730667114258 0 15 0 Z"/></g><g transform="translate(179.5 453.5)"><rect class="b" width="11" height="1.5" transform="translate(0 5)"/><rect class="b" width="11" height="1.5" transform="translate(6.5) rotate(90)"/></g></g></svg>

<svg xmlns="http://www.w3.org/2000/svg" width="30" height="30"><defs><style>.b{fill:#111}</style></defs><g fill="#fff"><path d="M15 29.25a14.157 14.157 0 01-10.076-4.174A14.157 14.157 0 01.75 15c0-3.806 1.482-7.385 4.174-10.076A14.157 14.157 0 0115 .75c3.806 0 7.385 1.482 10.076 4.174A14.157 14.157 0 0129.25 15c0 3.806-1.482 7.385-4.174 10.076A14.157 14.157 0 0115 29.25z"/><path d="M15 1.5a13.412 13.412 0 00-9.546 3.954A13.412 13.412 0 001.5 15c0 3.606 1.404 6.996 3.954 9.546A13.412 13.412 0 0015 28.5c3.606 0 6.996-1.404 9.546-3.954A13.412 13.412 0 0028.5 15c0-3.606-1.404-6.996-3.954-9.546A13.412 13.412 0 0015 1.5M15 0c8.284 0 15 6.716 15 15 0 8.284-6.716 15-15 15-8.284 0-15-6.716-15-15C0 6.716 6.716 0 15 0z" fill="#111"/></g><path class="b" d="M9.5 14.5h11V16h-11z"/><path class="b" d="M16 9.5v11h-1.5v-11z"/></svg>
